brandFactory_export/3.Masa/Acreditación_3Masa.svg

<?xml version="1.0" encoding="UTF-8"?>
<svg width="24px" height="24px" viewBox="0 0 24 24" version="1.1" xmlns="http://www.w3.org/2000/svg" xmlns:xlink="http://www.w3.org/1999/xlink">
    <title>3.Masa/Acreditación_3Masa</title>
    <g id="Symbols" stroke="none" stroke-width="1" fill="none" fill-rule="evenodd">
        <g id="3.Masa/Acreditación_3Masa" fill="#5CB615" fill-rule="nonzero">
            <path d="M21.9058824,20.7478992 L1.71764706,20.7478992 C0.769747899,20.7478992 0,19.9445378 0,18.9596639 L0,4.81512605 C0,3.8302521 0.769747899,3.0302521 1.71764706,3.0302521 L21.9092437,3.0302521 C22.8571429,3.0302521 23.6268908,3.8302521 23.6268908,4.81512605 L23.6268908,18.9596639 C23.6235294,19.9445378 22.8537815,20.7478992 21.9058824,20.7478992 Z M10.6352941,14.7647059 C11.0352941,14.7647059 11.3579832,14.4285714 11.3579832,14.0117647 C11.3579832,13.594958 11.0319328,13.2588235 10.6352941,13.2588235 L3.14621849,13.2588235 C2.74621849,13.2588235 2.42352941,13.594958 2.42352941,14.0117647 C2.42352941,14.4285714 2.74957983,14.7647059 3.14621849,14.7647059 L10.6352941,14.7647059 Z M8.22857143,10.7445378 C8.62857143,10.7445378 8.95462185,10.4084034 8.95462185,9.99159664 C8.95462185,9.57478992 8.62857143,9.23865546 8.22857143,9.23865546 L3.14621849,9.23865546 C2.74621849,9.23865546 2.42016807,9.57478992 2.42016807,9.99159664 C2.42016807,10.4084034 2.74621849,10.7445378 3.14621849,10.7445378 L8.22857143,10.7445378 Z M16.9378151,7.29915966 C16.2554622,7.29915966 15.7210084,7.48739496 15.3546218,7.85714286 C14.9714286,8.24033613 14.7798319,8.81176471 14.7798319,9.5512605 C14.7798319,10.2907563 14.9714286,10.8588235 15.3546218,11.2420168 C15.7210084,11.6117647 16.2554622,11.7966387 16.9378151,11.7966387 C17.6235294,11.7966387 18.1546218,11.6084034 18.5243697,11.2420168 C18.907563,10.8588235 19.102521,10.287395 19.102521,9.54789916 C19.102521,8.80840336 18.907563,8.24033613 18.5243697,7.85378151 C18.1546218,7.48403361 17.6235294,7.29915966 16.9378151,7.29915966 L16.9378151,7.29915966 Z M18.2588235,12.7815126 L15.6201681,12.7815126 C14.8201681,12.7815126 14.1613445,13.0369748 13.7210084,13.5142857 C13.3142857,13.9546218 13.102521,14.5663866 13.102521,15.2823529 L13.102521,16.0319328 C13.102521,16.1731092 13.2134454,16.287395 13.3478992,16.287395 L20.5378151,16.287395 C20.6722689,16.287395 20.7831933,16.1731092 20.7831933,16.0319328 L20.7831933,15.2823529 C20.7831933,14.5663866 20.5680672,13.9546218 20.1613445,13.5142857 C19.7142857,13.0369748 19.0588235,12.7815126 18.2588235,12.7815126 L18.2588235,12.7815126 Z" id="Acreditación_3Masa"></path>
        </g>
    </g>
</svg>

<svg width="24" height="24" viewBox="0 0 24 24" xmlns="http://www.w3.org/2000/svg"><path d="M21.906 20.748H1.718C.77 20.748 0 19.945 0 18.96V4.815C0 3.83.77 3.03 1.718 3.03h20.191c.948 0 1.718.8 1.718 1.785V18.96c-.003.985-.773 1.788-1.721 1.788zm-11.27-5.983c.4 0 .722-.336.722-.753s-.326-.753-.723-.753H3.146c-.4 0-.722.336-.722.753s.326.753.722.753h7.49zm-2.407-4.02a.74.74 0 00.726-.753.74.74 0 00-.726-.753H3.146a.74.74 0 00-.726.753.74.74 0 00.726.753H8.23zm8.709-3.446c-.683 0-1.217.188-1.583.558-.384.383-.575.955-.575 1.694 0 .74.191 1.308.575 1.691.366.37.9.555 1.583.555.686 0 1.217-.189 1.586-.555.384-.383.579-.955.579-1.694 0-.74-.195-1.308-.579-1.694-.37-.37-.9-.555-1.586-.555zm1.32 5.483H15.62c-.8 0-1.459.255-1.899.732-.407.44-.618 1.052-.618 1.768v.75c0 .141.11.255.245.255h7.19a.251.251 0 00.245-.255v-.75c0-.716-.215-1.327-.622-1.768-.447-.477-1.102-.732-1.902-.732z" fill="#5CB615" fill-rule="nonzero"/></svg>
